X: 2
T: The Yellow Wattle
R: jig
M: 6/8
L: 1/8
K: Dmix
dcA AGE|[A3A3] ABc|dcA ABc|dcA GED|dcA AGE|ABA AGE|DE/E/D cde|1 dcA GAc:|2 dcA GEA||DE/E/D ~c3|ded ~c3|ded cde|dcA GEA|DE/E/D ~c3|ded d2 c|ABA ABc|1 dcA GEA:|2 dcA GAc||


Tune 1237	Setting 25099

